X:1
T:Title
%%score 1 { ( 2 4 6 ) | ( 3 5 7 ) }
L:1/8
Q:1/4=100
M:4/4
K:Eb
V:1 treble nm="Choir Aahs"
V:2 bass nm="Grand Piano"
V:4 bass 
V:6 bass 
V:3 bass 
V:5 bass 
V:7 bass 
V:1
 z8 | z8 | B3- B/B/ c2 G2 | B2 G2 F2 E2 | C2 E2 E2 F2 | G4 E4 | B3- B/B/ c2 G2 | B2 e2 d2 c2 | %8
 B4 =A4 | B6 z2 | B3- B/B/ c2 G2 | B2 G2 F2 E2 | C2 E2 E2 F2 | G4 E4 | G2 A2 B2 c2 | d2 e2 B2 A2 | %16
 G4 F4 |[M:3/4] E6 |[M:1/4] (3FG=A |[M:4/4] .B2 z2 .B2 z2 | B6 (3Bcd | e2 d2 c2 B2 | %22
 B4 =A2 (3GA=B | .c2 z2 .c2 z2 | c6 (3ccc | c2 B2 =A2 G2 | G4 .F2 (3FG=A | .B2 z2 .B2 z2 | %28
 B6 (3Bcd | e2 d2 c2 B2 | B4 =A2 A>A | d3 =A B2 B2 | B2 =A2 G2 _G2 | G6 z2 | z8 | B3- B/B/ c2 G2 | %36
 B2 G2 F2 E2 | C2 E2 E2 F2 | G4 E4 | B3- B/B/ c2 G2 | B2 e2 d2 c2 | B4 =A4 | B6 z2 | %43
 B3- B/B/ c2 G2 | B2 G2 F2 E2 | C2 E2 E2 F2 | G4 E4 | G2 A2 B2 c2 | d2 e2 B2 A2 | G4 F4 | %50
[M:7/4] E6 z2 z2 z4 |] %51
V:2
 [E,G,E]2 (3B,B,B, C2[K:treble] [A,B,D]2 | [G,B,E]2 (3[B,DF][B,DF][B,DF] [B,EG]2 [B,DFB]2 | %2
w: H.~W.~Porter * * * * *||
 [B,EGB]3- [B,EGB]/B/ z4 | [B,EGB]2 [B,EG]2 [A,DF]2 [G,CE]2 | %4
w: ||
 [A,C]2 (3[CE][CE][CE] [=B,E]2 (3[B,F][B,F-][A,B,F] | G4[K:bass] z4[K:treble] | %6
w: ||
 [EGB]3- [EGB]/B/ z4 | [EB]2 [Gce]2 [F=Bd]2 [EGc]2 | B4 =A4 | B6 z2 | [G,B,EB]3- [G,B,EB]/B/ z4 | %11
w: |||||
 [B,EGB]2 [B,EG]2 [A,DF]2 [G,CE]2 | [A,C]2 (3[CE][CE][CE] [=B,E]2 (3[B,F][B,F][B,F] | %13
w: ||
 G4[K:bass] E4 | [B,EG]2 (3[B,DA][B,DA][B,DA] [B,EB]2 [EAc]2 | [FAd]2 [EGe]2 [DGB]2 [CFA]2 | %16
w: |||
 E2 (3BBB D2 (3BBB |[M:3/4] z2 (3BBB e2 |[M:1/4] (3FG=A | %19
w: |||
[M:4/4] .[B,DB]2[K:bass] (3F,F,F,[K:treble] .[DB]2 (3=A,A,A, | .[B,DB]2 (3FFF .[B,DB]2 z2 | %21
w: ||
 [Gce]2 [F=Bd]2 [EGc]2 [_DG_B]2 | B2 z2 .=A2 (3GA=B | .[CEc]2 (3G,G,G, .[Ec]2 (3=B,B,B, | %24
w: |||
 .[CEc]2 (3GGG .[CEc]2 (3ccc | [CEc]2 [CEB]2 [CE=A]2 [=A,EG]2 | [B,_DG]4[K:bass][K:treble] z4 | %27
w: |||
 .[B,DB]2[K:bass] (3F,F,F,[K:treble] .[DB]2 (3=A,A,A, | .[B,DB]2 (3FFF .[B,DB]2 z2 | %29
w: ||
 [Gce]2 [F=Bd]2 [EGc]2 [_DG_B]2 | B4 =A2 [CFA]>[CFA] | [D_Gd]3 [D=A] [D=GB]2 [EGB]2 | %32
w: |||
 [DGB]2 [CE=A]2 [B,DG]2 [=A,D_G]2 | G6 z2 | [G,CE]2 (3[B,DF][B,DF][B,DF] [B,EG]2 [B,DFB]2 | %35
w: |||
 [B,EGB]3- [B,EGB]/B/ z4 | [B,EGB]2 [B,EG]2 [A,DF]2 [G,CE]2 | %37
w: ||
 [A,C]2 (3[CE][CE][CE] [=B,E]2 (3[B,F][B,F-][A,B,F] | G4[K:bass] z4[K:treble] | %39
w: ||
 [EGB]3- [EGB]/B/ z4 | [EB]2 [Gce]2 [F=Bd]2 [EGc]2 | B4 =A4 | B6 z2 | [G,B,EB]3- [G,B,EB]/B/ z4 | %44
w: |||||
 [B,EGB]2 [B,EG]2 [A,DF]2 [G,CE]2 | [A,C]2 (3[CE][CE][CE] [=B,E]2 (3[B,F][B,F][B,F] | %46
w: ||
 G4[K:bass] E4 | [B,EG]2 (3[B,DA][B,DA][B,DA] [B,EB]2 [EAc]2 | [FAd]2 [EGe]2 [DGB]2 [CFA]2 | %49
w: |||
 E2 (3BBB D2 (3BBB |[M:7/4] z2 (3BBB e2 z2 z2 z4 |] %51
w: ||
V:3
 E,,2 (3B,,B,,B,, [A,,E,A,]2 [F,,F,]2 | [E,,E,]2 (3[D,,D,][D,,D,][D,,D,] [C,,C,]2 [B,,,B,,]2 | %2
 z2 z z/ [EG]/ z4 | [E,,E,]2 [B,,,B,,]2 [=B,,,=B,,]2 [C,,C,]2 | %4
 [A,,E,]2 (3[A,,E,A,][A,,E,A,][A,,E,A,] [A,,E,A,]2 (3[A,,E,A,][A,,E,A,][A,,E,] | %5
 [E,,E,]2 (3B,,B,,B,, E,,2 (3B,,B,,B,, | z2 z z/ [EG]/ z4 | G,,2 [C,,C,]2 [D,,D,]2 [E,,E,]2 | %8
 [F,,F,]2 (3F,F,F, [F,,F,]2 (3F,F,F, | B,,2 (3B,,B,,B,, B,,2 (3z A,A, | z2 z z/ [EG]/ z4 | %11
 [E,,E,]2 [B,,,B,,]2 [=B,,,=B,,]2 [C,,C,]2 | %12
 [A,,E,]2 (3[A,,E,A,][A,,E,A,][A,,E,A,] [A,,E,A,]2 (3[A,,E,A,][A,,E,A,][A,,E,A,] | %13
 [E,,E,]2 (3B,,B,,B,, E,,2 (3B,,B,,B,, | [E,,E,]2 (3[F,,F,][F,,F,][F,,F,] [G,,G,]2 [A,,A,]2 | %15
 [F,,F,]2 [C,,C,]2 [G,,G,]2 [A,,A,]2 | [B,,B,]2 (3B,B,B, z2 (3B,B,B, |[M:3/4] z2 (3B,B,B, E2 | %18
[M:1/4] (3F,G,B, |[M:4/4] .B,,2 (3F,,F,,F,, .[G,,G,]2 (3=A,,A,,A,, | %20
 .B,,2 (3F,F,F, .B,,2[K:treble] (3Bcd | [C,,C,]2 [D,,D,]2 [E,,E,]2 [=E,,=E,]2 | %22
 [F,,F,]2 (3F,F,F, .[F,,F,]2 (3G,=A,=B, | .C,2 (3G,,G,,G,, .[=A,,=A,]2 (3=B,,B,,B,, | %24
 .C,2 (3G,G,G, .C,2 (3EEE | .[F,,F,]2 .[F,,F,]2 .[F,,F,]2 .[F,,F,]2 | %26
 .B,,2 (3B,,B,,B,, .B,,2 (3F,G,=A, | .B,,2 (3F,,F,,F,, .[G,,G,]2 (3=A,,A,,A,, | %28
 .B,,2 (3F,F,F, .B,,2[K:treble] (3Bcd | [C,,C,]2 [D,,D,]2 [E,,E,]2 [=E,,=E,]2 | %30
 [F,,F,]2 (3F,F,F, [F,,F,]2 [E,,E,]2 | [D,,D,]3 [_G,,_G,] [=G,,=G,]2 [C,,C,]2 | %32
 [B,,,B,,]2 [C,,C,]2 [D,,D,]2 [D,,D,]2 | [G,,D,]2 (3z [G,B,][G,B,] [G,,D,G,]2 [F,,F,]2 | %34
 [E,,E,]2 (3[D,,D,][D,,D,][D,,D,] [C,,C,]2 [B,,,B,,]2 | z2 z z/ [EG]/ z4 | %36
 [E,,E,]2 [B,,,B,,]2 [=B,,,=B,,]2 [C,,C,]2 | %37
 [A,,E,]2 (3[A,,E,A,][A,,E,A,][A,,E,A,] [A,,E,A,]2 (3[A,,E,A,][A,,E,A,][A,,E,] | %38
 [E,,E,]2 (3B,,B,,B,, E,,2 (3B,,B,,B,, | z2 z z/ [EG]/ z4 | G,,2 [C,,C,]2 [D,,D,]2 [E,,E,]2 | %41
 [F,,F,]2 (3F,F,F, [F,,F,]2 (3F,F,F, | B,,2 (3B,,B,,B,, B,,2 (3z A,A, | z2 z z/ [EG]/ z4 | %44
 [E,,E,]2 [B,,,B,,]2 [=B,,,=B,,]2 [C,,C,]2 | %45
 [A,,E,]2 (3[A,,E,A,][A,,E,A,][A,,E,A,] [A,,E,A,]2 (3[A,,E,A,][A,,E,A,][A,,E,A,] | %46
 [E,,E,]2 (3B,,B,,B,, E,,2 (3B,,B,,B,, | [E,,E,]2 (3[F,,F,][F,,F,][F,,F,] [G,,G,]2 [A,,A,]2 | %48
 [F,,F,]2 [C,,C,]2 [G,,G,]2 [A,,A,]2 | [B,,B,]2 (3B,B,B, z2 (3B,B,B, | %50
[M:7/4] z2 (3B,B,B, E2 z2 z2 z4 |] %51
V:4
 x6[K:treble] x2 | x8 | z2 (3D,D,D, [EGc]2 [B,EG]2 | x8 | x8 | %5
 [B,E]2[K:bass] (3B,B,B, [E,G,B,E]2[K:treble] (3[EG][EG][EG] | z2 (3D,D,D, [EGc]2 [EG]2 | x8 | %8
 [DF]2 (3FFF [CE]2 (3FFF | [B,DF]2 (3[CEA][CEA][CEA] [B,DG]2 (3[A,DF][DF][DF] | %10
 E,2 (3D,D,D, [EGc]2 [B,EG]2 | x8 | x8 | [B,E]2[K:bass] (3B,B,B, [E,G,B,]2 (3B,B,B, | x8 | x8 | %16
 G4 [A,F]4 |[M:3/4] E4 z2 |[M:1/4] x2 |[M:4/4] x2[K:bass] x2[K:treble] x4 | x8 | x8 | [CE]6 z2 | %23
 x8 | x8 | x8 | z2[K:bass] (3=E,E,E,[K:treble] .[F,B,=DF]2 (3FG=A | x2[K:bass] x2[K:treble] x4 | %28
 x8 | x8 | [CF]6 z2 | x8 | x8 | [B,D]2 (3[G,B,D]DD D2 [A,B,D]2 | x8 | z2 (3D,D,D, [EGc]2 [B,EG]2 | %36
 x8 | x8 | [B,E]2[K:bass] (3B,B,B, [E,G,B,E]2[K:treble] (3[EG][EG][EG] | z2 (3D,D,D, [EGc]2 [EG]2 | %40
 x8 | [DF]2 (3FFF [CE]2 (3FFF | [B,DF]2 (3[CEA][CEA][CEA] [B,DG]2 (3[A,DF][DF][DF] | %43
 E,2 (3D,D,D, [EGc]2 [B,EG]2 | x8 | x8 | [B,E]2[K:bass] (3B,B,B, [E,G,B,]2 (3B,B,B, | x8 | x8 | %49
 G4 [A,F]4 |[M:7/4] E4 z2 z2 z2 z4 |] %51
V:5
 x8 | x8 | [E,,E,]2 (3D,,D,,D,, [C,,C,]2 [B,,,B,,]2 | x8 | x8 | x8 | %6
 [E,,E,]2 (3D,,D,,D,, [C,,C,]2 [B,,,B,,]2 | x8 | x8 | z4 z2 B,,2 | %10
 E,,2 (3D,,D,,D,, [C,,C,]2 [B,,,B,,]2 | x8 | x8 | x8 | x8 | x8 | z4 B,,4 |[M:3/4] E,,6 | %18
[M:1/4] x2 |[M:4/4] x8 | x6[K:treble] x2 | x8 | x8 | x8 | x8 | x8 | x8 | x8 | x6[K:treble] x2 | %29
 x8 | x8 | x8 | x8 | z2 D,2 z4 | x8 | [E,,E,]2 (3D,,D,,D,, [C,,C,]2 [B,,,B,,]2 | x8 | x8 | x8 | %39
 [E,,E,]2 (3D,,D,,D,, [C,,C,]2 [B,,,B,,]2 | x8 | x8 | z4 z2 B,,2 | %43
 E,,2 (3D,,D,,D,, [C,,C,]2 [B,,,B,,]2 | x8 | x8 | x8 | x8 | x8 | z4 B,,4 |[M:7/4] E,,6 z2 z2 z4 |] %51
V:6
 x6[K:treble] x2 | x8 | x8 | x8 | x8 | x2[K:bass] x4[K:treble] x2 | x8 | x8 | x8 | x8 | x8 | x8 | %12
 x8 | x2[K:bass] x6 | x8 | x8 | x8 |[M:3/4] [E,G,]6 |[M:1/4] x2 | %19
[M:4/4] x2[K:bass] x2[K:treble] x4 | x8 | x8 | x8 | x8 | x8 | x8 | x2[K:bass] x2[K:treble] x4 | %27
 x2[K:bass] x2[K:treble] x4 | x8 | x8 | x8 | x8 | x8 | x8 | x8 | x8 | x8 | x8 | %38
 x2[K:bass] x4[K:treble] x2 | x8 | x8 | x8 | x8 | x8 | x8 | x8 | x2[K:bass] x6 | x8 | x8 | x8 | %50
[M:7/4] [E,G,]6 z2 z2 z4 |] %51
V:7
 x8 | x8 | x8 | x8 | x8 | x8 | x8 | x8 | x8 | x8 | x8 | x8 | x8 | x8 | x8 | x8 | x8 |[M:3/4] x6 | %18
[M:1/4] x2 |[M:4/4] x8 | x6[K:treble] x2 | x8 | x8 | x8 | x8 | x8 | x8 | x8 | x6[K:treble] x2 | %29
 x8 | x8 | x8 | x8 | z2 G,,2 z4 | x8 | x8 | x8 | x8 | x8 | x8 | x8 | x8 | x8 | x8 | x8 | x8 | x8 | %47
 x8 | x8 | x8 |[M:7/4] x14 |] %51

